car-2-plus.svg

<svg fill="currentColor" viewBox="0 0 24 24"><path d="M8 16c0-2.4 1.1-4.5 2.7-6H3l1.5-4.5h11l.8 2.5c.6 0 1.2.1 1.7.3L16.9 5c-.2-.6-.8-1-1.4-1h-11c-.7 0-1.2.4-1.4 1L1 11v8c0 .5.5 1 1 1h1c.5 0 1-.5 1-1v-1h4.3c-.2-.6-.3-1.3-.3-2m-3.5-1c-.8 0-1.5-.7-1.5-1.5S3.7 12 4.5 12s1.5.7 1.5 1.5S5.3 15 4.5 15M16 20v-2h-3v-1h1c1.1 0 2-.9 2-2v-1c0-1.1-.9-2-2-2h-3v2h3v1h-1c-1.1 0-2 .9-2 2v3m12-3h-2v2h-2v-2h-2v-2h2v-2h2v2h2z"/></svg>

<svg  viewBox="0 0 24 24" fill="currentColor"><path  d="M8 16C8 13.6 9.1 11.5 10.7 10H3L4.5 5.5H15.5L16.3 8C16.9 8 17.5 8.1 18 8.3L16.9 5C16.7 4.4 16.1 4 15.5 4H4.5C3.8 4 3.3 4.4 3.1 5L1 11V19C1 19.5 1.5 20 2 20H3C3.5 20 4 19.5 4 19V18H8.3C8.1 17.4 8 16.7 8 16M4.5 15C3.7 15 3 14.3 3 13.5S3.7 12 4.5 12 6 12.7 6 13.5 5.3 15 4.5 15M16 20V18H13V17H14C15.1 17 16 16.1 16 15V14C16 12.9 15.1 12 14 12H11V14H14V15H13C11.9 15 11 15.9 11 17V20M23 17H21V19H19V17H17V15H19V13H21V15H23V17Z"/></svg>
